X:1
T:Title
%%score { 1 | 2 }
L:1/8
Q:1/4=100
M:4/4
K:E
V:1 treble nm="Grand Piano"
V:2 bass 
V:1
 E3 [DF] [EG]3 [EB] | [Ec]2 [Ec]2 [EB]2 [B,EG]2 | [CEA]3 [CEA] [B,EG]3 [G,E] | %3
w: J.~Howard~Entwisle * * *|||
 [B,DG]2 [A,DF]2 [G,E]4 | [G,E]3 [B,DF] [B,EG]3 [EB] | [Ec]2 [Ec]2 B2 G2 | F3 B d3 e | %7
w: ||||
[M:7/8] d2 c2 [B,DB]3 |[M:1/4] B>B |[M:4/4] [Ge]3 [Ac] [GB]2 GB | e2 c2 [EGB]2 [B,EG]2 | %11
w: ||||
 [CEA]3 [CEA] [B,EG]3 [B,EG] |[M:3/4] [E^A]2 [EA]2 [DB]2 |[M:1/4] B>B | %14
w: |||
[M:4/4] [Ge]3 [Ac] [GB]2 GB | e2 [EAc]2 [GB]2 [B,EG]2 | [CEA]3 [CEA] [B,EG]3 [G,E] | %17
w: |||
 [B,DG]2 [A,DF]2 [G,E]4 |] %18
w: |
V:2
 [E,G,]3 [B,,B,] [E,B,]3 [E,G,] | [A,,A,]2 [C,A,]2 [E,G,]2 E,2 | A,,3 A,, B,,3 B,, | %3
 B,,2 B,,2 E,4 | E,3 B,, E,3 [E,G,] | [A,,A,]2 [C,A,]2 [E,G,E]2 [E,B,E]2 | %6
 [F,B,D]3 [F,B,D] [F,B,F]3 [F,B,F] |[M:7/8] [F,^A,F]2 [F,A,E]2 B,,3 |[M:1/4] B,>B, | %9
[M:4/4] [E,B,]3 [E,E] [E,E]2 [E,B,E][E,G,E] | [A,CE]2 [A,EA]2[K:bass] E,2 E,2 | A,,3 A,, E,3 E, | %12
[M:3/4] [C,F,]2 [C,F,]2 [B,,F,]2 |[M:1/4] B,>B, |[M:4/4] [E,B,]3 [E,E] [E,E]2 [E,B,E][E,G,E] | %15
 [A,,A,CE]2 [A,,A,]2 [E,E]2 E,2 | A,,3 A,, B,,3 B,, | B,,2 B,,2 E,4 |] %18

